dist/icons/lyne-warning-light-large.svg

<svg width="48" height="48" viewBox="0 0 48 48" fill="none" xmlns="http://www.w3.org/2000/svg">
<path fill-rule="evenodd" clip-rule="evenodd" d="M24.501 11.4987V5.4987H23.501V11.4987H24.501ZM11.625 10.4168L15.868 14.6598L15.1609 15.367L10.9179 11.124L11.625 10.4168ZM5.99854 22.9987H11.9985V23.9987H5.99854V22.9987ZM10.0764 36.9997H10.5H14V23.9997C14 18.4776 18.4768 13.9997 24 13.9997C29.5232 13.9997 34 18.4776 34 23.9997V36.9997H37.5H37.9236L37.9932 37.4175L38.9932 43.4175L39.0902 43.9997H38.5H9.5H8.90977L9.0068 43.4175L10.0068 37.4175L10.0764 36.9997ZM33 36.9997V23.9997C33 19.0298 28.9708 14.9997 24 14.9997C19.0292 14.9997 15 19.0298 15 23.9997V36.9997H21.0009L21 29.9998V29.9993C21.0012 28.3435 22.3438 27.0007 24 27.0007C25.6571 27.0007 27 28.3436 27 30.0007V30.0047V30.0048L26.9991 36.9997H33ZM22 29.9999L22.0009 36.9997H25.9991L26 30.0047V30.0046V30.0007C26 28.8958 25.1049 28.0007 24 28.0007C22.8963 28.0007 22.0009 28.8957 22 29.9999ZM10.9236 37.9997L10.0902 42.9997H37.9098L37.0764 37.9997H10.9236ZM24 16.9997C20.1339 16.9997 17 20.1336 17 23.9997H18C18 20.6858 20.6861 17.9997 24 17.9997V16.9997ZM42.001 24.0007H36.001V23.0007H42.001V24.0007ZM32.8398 15.368L37.0828 11.126L36.3758 10.4188L32.1328 14.6608L32.8398 15.368Z" fill="black"/>
</svg>

<svg width="48" height="48" xmlns="http://www.w3.org/2000/svg"><path fill-rule="evenodd" clip-rule="evenodd" d="m24.5,11.5v-6h-1v6h1zm-12.88-1.08,4.24,4.24-.71.71-4.24-4.24.71-.71zM6,23h6v1H6v-1zm4.08,14H14v-13c0-5.52,4.48-10,10-10s10,4.48,10,10v13h3.92l1.17,7H8.91l1.17-7zm22.92,0v-13c0-4.97-4.03-9-9-9s-9,4.03-9,9v13h6L21,30v0c0-1.66,1.34-3,3-3,1.66,0,3,1.34,3,3v0l0,6.99H33zm-11-7,0,7h4L26,30v0c0-1.1-.9-2-2-2-1.1,0-2,.9-2,2zm-11.08,8-.83,5h27.82l-.83-5H10.92zm13.08-21c-3.87,0-7,3.13-7,7h1c0-3.31,2.69-6,6-6v-1zm18,7h-6v-1h6v1zm-9.16-8.63,4.24-4.24-.71-.71-4.24,4.24.71.71z"/></svg>
